app/dist/common/images/scansource.svg

<svg height="18" viewBox="0 0 18 18" width="18" xmlns="http://www.w3.org/2000/svg"><path d="m0 0h18v18h-18z" fill="#f0f3fa"/><path d="m8.47 4 4.53 2v2l-4.53-2z" fill="#f57826"/><path d="m8.47 4-3.47 3v2l3.47-3z" fill="#d81825"/><path d="m5 7 4 1.7v2.06l-4-1.76zm8 4.06-3-1.47v-2.06l3 1.47z" fill="#999"/><path d="m9.8 14-4.8-2v-2l4.8 2z" fill="#f57826"/><path d="m9.8 14 3.2-2.94v-2.06l-3.2 3z" fill="#d81825"/></svg>

<!-- by TradingView --><svg width="18" height="18" viewBox="0 0 18 18" xmlns="http://www.w3.org/2000/svg"><path fill="#F0F3FA" d="M0 0h18v18H0z"/><path d="M8.47 4 13 6v2L8.47 6V4Z" fill="#F57826"/><path d="M8.47 4 5 7v2l3.47-3V4Z" fill="#D81825"/><path d="m5 7 4 1.7v2.06L5 9V7ZM13 11.06l-3-1.47V7.53L13 9v2.06Z" fill="#999"/><path d="M9.8 14 5 12v-2l4.8 2v2Z" fill="#F57826"/><path d="m9.8 14 3.2-2.94V9l-3.2 3v2Z" fill="#D81825"/></svg>
